!!!COA:	Josquin des Prez
!!!CDT:	~1450-1521/08/27
!!!OTL:	Mirabilia testimonia tua
!!!AGN:	Motet
!!!SCT:	NJE 18.2
!!!SCA:	New Josquin Edition 18.2
!!!voices:	4?
**kern
*staff1
*Ivox
*I"Superius
*I'S
*clefG2
*k[b-]
*M2/1
*met(C|)
=1-
1.dd
2dd\
=2
2ee-i\
2dd\
2cc\
2b-\
=3
1cc
2cc\
2cc\
=4
2dd\
2cc\
2b-\
2a/
=5
1b-
2b-\
2b-\
=6
2cc\
2b-\
2a/
2g/
=7
2.dd\
4cc\
2b-\
2a/
=8
2b-\
2cc\
1a
=9
2r
1dd
4cc\
4b-\
=10
2a/
2g/
2f/
[2ff\
=11
4ff\]
4ee\
2.dd\
4cc#i\
4cc#i\
4bni\
=12
0dd
=13
0r
=14
0r
=15
0r
=16
0r
=17
0r
=18
0r
=19
0r
=20
0r
=21
0r
=22
0r
=23
1r
2r
[2dd\
=24
2dd\]
2dd\
2.ff\
4gg\
=25
1dd
1r
=26
1r
2r
2dd\
=27
2cc\
2a/
1dd
=28
2cc\
2b-\
1a
=29
1g
1r
=30
0r
=31
1r
2r
2g/
=32
4b-\
4a/
4b-\
4cc\
2dd\
2dd\
=33
1g
1r
=34
0r
=35
1r
1f
=36
1g
1a
=37
1b-
2g/
2g/
=38
2.b-\
4cc\
2dd\
[2ee-i\
=39
4ee-\]
4dd\
1dd
2cc\
=40
0dd
=41
1r
1dd
=42
2dd\
2cc\
2b-\
2a/
=43
0g
=44
1r
1cc
=45
2cc\
2b-\
2a/
2g/
=46
[0f
=47
0f]
=48
0r
=49
1r
1ff
=50
2ff\
1ff
[2ff\
=51
2ff\]
1dd
2dd\
=52
0ee
=53
0r
=54
0r
=55
0r
=56
0r
=57
0r
=58
0r
=59
2r
1cc
2dd\
=60
2cc\
1ff
2ee\
=61
0ff
=62
0r
=63
0r
=64
2.ff\
4ff\
2ff\
2ff\
=65
0cc
=66
1r
2r
2dd\
=67
2cc\
2a/
2b-\
[2cc\
=68
4cc\]
4b-\
4a/
4g/
2a/
2a/
=69
0g
=70
2r
2b-\
2b-\
2b-\
=71
2b-\
2b-\
1cc
=72
0a
=73
0r
=74
1r
2r
2f/
=75
2.a/
4b-\
2cc\
2cc\
=76
0f
=77
0r
=78
0r
=79
0r
=80
0r
=81
0r
=82
0r
=83
0r
=84
0r
=85
2r
2dd\
2dd\
2dd\
=86
2.a/
4b-\
2cc\
2dd\
=87
2b-\
4a/
4g/
1a
=88
0g
=89
2r
2cc\
1cc
=90
1.dd
2dd\
=91
2b-\
2b-\
1b-
=92
0cc
=93
0r
=94
0r
=95
0r
=96
0r
=97
0r
=98
2r
2dd\
2dd\
2dd\
=99
0ff
=100
1dd
2dd\
2dd\
=101
1.ff
2ee\
=102
2dd\
4cc\
4b-\
1cc
=103
2f/
1b-
2a/
=104
0b-
=105
0r
=106
0r
=107
0r
=108
0r
=109
1b-
1b-
=110
1.a
2a/
=111
[0b-
=112
0b-_
=113
0b-]
=114
1r
2r
2dd\
=115
2b-\
2cc\
[1dd
=116
1dd]
1g
=117
0r
=118
0r
=119
0r
=120
0r
=121
2r
2cc\
2cc\
2b-\
=122
1cc
2r
2a/
=123
1.a
2a/
=124
1.a
4g/
4f/
=125
1g
1r
=126
0r
=127
2g/
2cc\
2b-\
2g/
=128
1b-
2.f/
4g/
=129
*M3/1
*met(3/2)
[0.a
=130
0.a]
=131
0.r
=132
1b-
1b-
1g
=133
0.g
=134
0.r
=135
0.r
=136
0.r
=137
1.b-
2b-\
1b-
=138
1cc
1cc
1a
=139
0.dd
=140
0.r
=141
0dd
1dd
=142
0.dd
=143
0b-
1r
=144
0b-
1g
=145
0a
1b-
=146
2cc\
2b-\
2a/
2g/
1f
=147
0g
1f#i
=148
*M2/1
*met(C|)
1g
2r
2b-\
=149
1.a
2a/
=150
1a
1f
=151
2g/
1b-
2a/
=152
0b-
=153
0r
=154
2r
2dd\
2dd\
2dd\
=155
0a
=156
2r
2dd\
2.cc\
4dd\
=157
2ee\
1ff
4ee\
4dd\
=158
2cc\
2a/
1b-
=159
2a/
1dd
2cc#i\
=160
0ddl
!!LO:LB:i:g=z
=161||
*k[b-]
*M2/1
*met(C|)
!!section: Secunda pars: Mandasti justitiam
!!!OMD: Secunda pars: Mandasti justitiam
0r
=162
0r
=163
0r
=164
0r
=165
0r
=166
0r
=167
0r
=168
2r
2dd\
1dd
=169
2dd\
2dd\
1ee
=170
1cc
1dd
=171
2b-\
2b-\
1cc
=172
1a
1dd
=173
2b-\
4a/
4g/
1a
=174
1g
2r
2g/
=175
2b-\
2b-\
1cc
=176
1b-
1ee-
=177
1dd
2r
[2cc\
=178
2cc\]
2bni\
1cc
=179
0r
=180
0r
=181
0r
=182
0r
=183
1r
1dd
=184
1.ff
2ff\
=185
1ff
2r
2ff\
=186
1ff
1ee
=187
2r
2.dd\
4cc\
4b-\
4a/
=188
2b-\
1a
2g/
=189
1a
2r
2a/
=190
1dd
1cc
=191
1ff
2ee\
[2ff\
=192
2ff\]
4ee\
4dd\
2cc\
[2ff\
=193
2ff\]
1ee
[2dd\
=194
4dd\]
4cc\
1cc
2bni\
=195
0cc
=196
0r
=197
2ff\
2ee\
2dd\
2cc\
=198
1dd
2a/
[2ff\
=199
4ff\]
4ee\
2.dd\
4cc#i\
4cc#i\
4bni\
=200
0dd
=201
0r
=202
0r
=203
0r
=204
0r
=205
0r
=206
1r
2r
2dd\
=207
1dd
1ff
=208
1ee
[1dd
=209
2dd\]
2cc\
2dd\
2b-\
=210
2a/
2ff\
2ee\
[2dd\
=211
2dd\]
4cc\
4b-\
1a
=212
0g
=213
1r
[1dd
=214
1dd]
1r
=215
1dd
1r
=216
1r
2r
2ee\
=217
2dd\
2ee\
1ff
=218
1ee
1r
=219
1r
2r
2ee\
=220
2dd\
2ee\
1ff
=221
2ee\
1dd
2cc#i\
=222
*M3/1
*met(3)
0.dd
=223
0.r
=224
0.r
=225
0.r
=226
1.dd
2dd\
1dd
=227
1.dd
2cc\
1b-
=228
1g
0b-
=229
0.a
=230
*M2/1
*met(C2)
1b-
2r
[2b-\
=231
2b-\]
2b-\
1cc
=232
0b-
=233
0r
=234
0r
=235
0r
=236
3%2a
3%2b-
3%2g
=237
3%2f
3%4a
=238
3%4g
3%2f#i
=239
0g
=240
2r
2g/
2.b-\
4cc\
=241
2dd\
2dd\
2g/
2dd\
=242
2cc\
2b-\
1a
=243
2g/
2f/
1e
=244
4d/
4e/
4f/
4g/
2.a/
4b-\
=245
2cc\
1dd
2cc#i\
=246
0dd
=247
0r
=248
0r
=249
0r
=250
0r
=251
0r
=252
0r
=253
0r
=254
0r
=255
*M6/2
*met(C.)
0.r
=256
2r
2r
2r
1dd
2b-\
=257
2cc\
1dd
[1.g
=258
1.g]
2r
2r
2r
=259
0.r
=260
0.r
=261
0.r
=262
1cc
2a/
2b-\
2cc\
2cc\
=263
1b-
2cc\
1.f
=264
0.r
=265
0.r
=266
0.r
=267
0.r
=268
*M2/1
*met(C|)
2ee\
2ee\
1ff
=269
2cc\
2cc\
1dd
=270
2a/
2a/
1b-
=271
2a/
2.dd\
4cc#i\
4cc#i\
4bni\
=272
1dd
1r
=273
1r
2r
[2g/
=274
2g/]
2g/
2a/
2f/
=275
1g
2.f/
4g/
=276
2.a/
4g/
2g/
2f#i/
=277
1g
1r
=278
1a
2a/
2a/
=279
1cc
2a/
2a/
=280
2a/
2a/
1f
=281
0r
=282
0r
=283
0r
=284
1cc
2dd\
2dd\
=285
1cc
1b-
=286
1cc
1dd
=287
1cc
[1dd
=288
2dd\]
2dd\
2ee-i\
2dd\
=289
2cc\
2b-\
1cc
=290
0r
=291
0r
=292
1.cc
2cc\
=293
2dd\
2cc\
2b-\
2a/
=294
1b-
1r
=295
0r
=296
1r
[1b-
=297
2b-\]
2b-\
2cc\
2b-\
=298
2a/
2g/
1a
=299
0r
=300
0r
=301
1r
2.dd\
4dd\
=302
2cc\
2a/
2.b-\
4cc\
=303
1a
1r
=304
0r
=305
2r
1dd
4cc\
4b-\
=306
2a/
2g/
2f/
[2ff\
=307
4ff\]
4ee\
2.dd\
4cc#i\
4cc#i\
4bni\
=308
0dd
=309
0r
=310
0r
=311
1.ff
2dd\
=312
2ee\
2.cc\
4b-\
4a/
4g/
=313
2f/
1g
2f#i/
=314
0gl
==
*-
!!!RDF**kern: l=long note in original notation
!!!RDF**kern: i=editorial accidental
!!!RDF**kern: V=start of tuplet marker
!!!RDF**kern: Z=end of tuplet marker
!!!ENC:	Chris Gage 06-08-2012
!!!END:	2012/06/10/
!!!EED:	Jesse Rodin
!!!EEV:	2012/06/21/
!!attribution-level@Jos: 4 (questionable)
!!!ONB:	Translated from MusicXML and edited on 2012/06/21/ by Craig Sapp
!!muse2ps: C^@{COA}?\n@{SCT}^i2I350v150Q16
